app/img/гк.svg

<svg width="136" height="99" viewBox="0 0 136 99" fill="none" xmlns="http://www.w3.org/2000/svg">
<path d="M56.16 15.5V29.09H15.3L22.23 22.16V83H6.93V15.5H56.16ZM64.6741 83V15.5H79.8841V70.58L75.5641 67.52L117.324 15.5H133.614L78.4441 83H64.6741ZM96.8941 49.97L107.874 40.16L134.604 83H117.144L96.8941 49.97Z" fill="url(#paint0_linear_465_3104)"/>
<defs>
<linearGradient id="paint0_linear_465_3104" x1="15.5" y1="41.5" x2="67.0333" y2="-23.9902" gradientUnits="userSpaceOnUse">
<stop offset="0.184219" stop-color="#2D4E6A"/>
<stop offset="0.486439" stop-color="#0C5FA8"/>
<stop offset="1" stop-color="#E85022"/>
</linearGradient>
</defs>
</svg>

<svg xmlns="http://www.w3.org/2000/svg" width="136" height="99" fill="none"><path fill="url(#a)" d="M56.16 15.5v13.59H15.3l6.93-6.93V83H6.93V15.5h49.23ZM64.674 83V15.5h15.21v55.08l-4.32-3.06 41.76-52.02h16.29L78.444 83h-13.77Zm32.22-33.03 10.98-9.81L134.604 83h-17.46l-20.25-33.03Z"/><defs><linearGradient id="a" x1="15.5" x2="67.033" y1="41.5" y2="-23.99" gradientUnits="userSpaceOnUse"><stop offset=".184" stop-color="#2D4E6A"/><stop offset=".486" stop-color="#0C5FA8"/><stop offset="1" stop-color="#E85022"/></linearGradient></defs></svg>
